X:744
T:Dark Lochnagar
C:Joe Buchanan's Scottish Tome - Page 541.1
I:541 1
Z:Carl Allison
R:Schottische
L:1/4
M:3/4
K:C
(G/E/) | "C"C3 | "C"C2 E | "G7"G3- | "G7"G A B | "Am"c3 | "E7"e2 d | "Am"d c2 | "C7"(c2 G) |
"F"A3 | "F"c2 G | "C"G E2 | "C"E2 C | "Dm"D2 D | "Dm"D2 E | "G7"D3- | "G7"D G E |
"Am"C3 | "Am"C2 E | "Em"G3- | "G7"G A B | "Am"c3 | "E7"e2 d | "Am"d c2 | "C7"c2 G |
"F"F3 | "F"c2 A | "C"G E2 | "C"E2C | "Dm"D3 | "G"(D2 E) | "C"C3- | "C"C2 G |
"C"c3 | "E7"(e2 d) | "Am"d c2 | "C7"c2 G | "F"A3 | "F"(c2 A) | "C"G E2- | "C"E2 F |
"C"G2 E | "E7"D2C | "Am"C "F"c2 | "F"c2 A | "C"G2 E | "C"D2 C | "G7"D3- | "G"D e f |
"C"g2 f | "G7"e>d c/B/ | "C"d c2- | "C"c2 G | "F"A2 A | "F"f e d | "G7"c>B A | "G7"G>E F |
"C"G2 G | "F"A2 G | "C"G "Am"A B | c "Fm"g f | "C"e2 e | "G7"d2 c | "C"c3- | "C"c2 |]

